X:1
T:Day of Life and Joy
T:A. A. DuBois
T:Day of Life and Joy
T:Public Domain
T:Public Domain
T:Public Domain
C:A. A. DuBois
Z:Public Domain
%%score ( 1 2 ) ( 3 4 )
L:1/8
M:4/4
K:F
V:1 treble 
V:2 treble 
V:3 bass 
V:4 bass 
V:1
 C2 | .[FA]2 .[EA]2 .[DA]2 .[CA]2 | [Ec]3 [EB] [EG]3 [EA] | [EB]2 E2 [CA]2 [B,CG]2 | [A,CF]6 C2 | %5
w: 1.~When|sus left His rock-|y tomb, Ap- pear-|ing to His own;|Tree of|
w: 2.~O|èd hearts that hear|His voice Be- neath|the cy- press shade!|in His|
w: 3.~When|sus left His rock-|y tomb, That morn-|ing, calm and fair;|liv- ing|
 .[FA]2 .[EA]2 .[DA]2 .[CA]2 | [Ec]3 [EG] E2 [Ec]2 | [Ge]2 G2 [^FA]2 [=F=B]2 | [Ec]6 [Bd]>[Ac] | %9
w: burst in- to bloom,|The sun of glo-|shone. In His tri-|o- ver death|
w: less love re- joice,|Their souls in Him|stayed. Pre- cious hope,|looks be- yond|
w: dis- persed the gloom,|And in His joy|share. In the bless-|of these East-|
 [GB]2 E2 [CA]2 [B,G]2 | [B,G]2 [A,F]2 [A,C]3 [A,C] | [B,D]3 [CE] [DF]2 [DEG]2 | [^CEA]6 A2 | %13
w: and sin, That hap-|East- er day, E-|ter- nal life thro’|Him we|
w: the grave! In Je-|we shall meet; His|eye will watch, His|arm will|
w: er hours, We sing|sav- ing name; The|buds of spring and|love’s sweet|
 [Fd]3 [Fd] [Fc]2 F2 | [FB]2 [EB]2 [FA]3 [FA] | [DG]2 [DB]2 [CEG]3 [A,CF]/ | [A,CF]6 || %17
w: The stone is rolled|way. * * *|||
w: We’ll ga- ther at|feet. ’Tis East- er,|beau- ti- ful East-|er;|
w: His glo- ry shall|claim. * * *|||
"^Refrain" [FAc]2 |"^Sprightly" [FAd]2 [FAc]3 [FA][F^G][FA] | [Ec]2 [EB]4 [Ec]2 | %20
w: |||
w: Re-|joice! ’tis won- der- ful|East- er; We|
w: |||
 [EBe]2 [EBd]3 [EB][EA][EB] | [FAd]2 [FAc]4 [FA]2 | [FAd]2 [FAc]3 [FA][F^G][FA] | %23
w: |||
w: greet thee glor- i- ous|East- er, Beau-|ti- ful day of life|
w: |||
 [Ec]2 [DB]3 [DB][CA][B,G] | [A,F]2 [CA]2 [CEG]3 [A,CF]/ | [A,CF]6 |] %26
w: |||
w: and joy! * * *|||
w: |||
V:2
 C2 | x8 | x8 | x2 E2 x4 | x6 C2 | x8 | x4 E2 x2 | x2 G2 x4 | x8 | x2 E2 x4 | x8 | x8 | x6 A2 | %13
w: Je-|||The|Life||ry|umph||py|||win;|
w: bless-|||That|change-||are|that||sus|||save;|
w: Je-|||The|light||we|ing||His|||flow’rs,|
 x6 F2 | x8 | x15/2 | x6 || x2 | x8 | x8 | x8 | x8 | x8 | x8 | x15/2 | x6 |] %26
w: a-|||||||||||||
w: His|||||||||||||
w: pro-|||||||||||||
V:3
 z2 | F,,2 [F,A,C]2 F,,2 [F,A,]2 | C,2 [G,B,C]2 C,2 [G,B,C]2 | C,2 [G,B,C]2 C,2 E,2 | %4
 (F,2 C,A,, F,,2) z2 | F,,2 [F,A,C]2 F,,2 [F,A,]2 | G,,2 [G,C]2 G,,2 [G,C]2 | %7
 G,,2 [G,CE]2 G,,2 [G,D]2 | (C2 G,E, C,2) z2 | C,2 [G,B,C]2 C,2 [E,G,]2 | z2 F,2 F,2 F,2 | %11
 [B,,F,]3 [B,,B,] [B,,B,]2 B,,2 | (A,,2 ^C,E, A,2) A,2 | B,3 B, [A,C]2 [A,C]2 | %14
 [G,D]2 [G,C]2 [F,C]3 [F,C] | B,2 G,2 [C,B,]3 [F,,F,]/ | [F,,F,]6 || z2 | %18
 F,,2 [F,A,C]2 F,,2 [F,A,C]2 | C,2 [G,B,C]2 C,2 [G,B,C]2 | C,2 [G,B,C]2 C,2 [G,B,C]2 | %21
 F,,2 [F,A,C]2 F,,2 [F,A,C]2 | F,,2 [F,A,C]2 F,,2 [F,A,C]2 | B,,2 [G,B,]2 B,,4 | %24
 C,4 [C,G,B,]3 [F,,F,]/ | [F,,F,]6 |] %26
V:4
 x2 | x8 | x8 | x8 | x8 | x8 | x8 | x8 | x8 | x8 | F,,6 x2 | x6 B,,2 | x6 A,2 | B,3 B, x4 | x8 | %15
 B,2 G,2 x7/2 | x6 || x2 | x8 | x8 | x8 | x8 | x8 | x4 B,,4 | C,4 x7/2 | x6 |] %26

